!!!COM: Palestrina, Giovanni Perluigi da
!!!OPR: Dilexi quoniam
!!!OTL: Gloria
**kern	**kern	**kern	**kern	**kern
*Ibass	*Itenor	*Itenor	*Icalto	*Icant
!Bassus	!Tenor 2	!Tenor 1	!Altus	!Cantus
*clefF4	*clefGv2	*clefGv2	*clefG2	*clefG2
*k[]	*k[]	*k[]	*k[]	*k[]
*C:ion	*C:ion	*C:ion	*C:ion	*C:ion
*M4/2	*M4/2	*M4/2	*M4/2	*M4/2
=1	=1	=1	=1	=1
0r	0r	1r	1.d	0r
.	.	[1G	.	.
.	.	.	2d	.
=2	=2	=2	=2	=2
0r	0r	2G]	2d	0r
.	.	2G	2d	.
.	.	2G	2.g	.
.	.	2G	.	.
.	.	.	4f	.
=3	=3	=3	=3	=3
0r	0r	1c	4e	1.g
.	.	.	4d	.
.	.	.	2e	.
.	.	2B	2d	.
.	.	[2c	[2e	2g
=4	=4	=4	=4	=4
0r	0r	4c]	4e]	2g
.	.	4B	4f	.
.	.	4A	1g	2g
.	.	4G	.	.
.	.	2A	.	1cc
.	.	2A	2f#	.
=5	=5	=5	=5	=5
0r	0r	2G	4g	2b
.	.	.	4f	.
.	.	4c	4e	2.cc
.	.	4d	4d	.
.	.	4e	4c	.
.	.	4f	4d	4b
.	.	[2g	2e	4a
.	.	.	.	4g
=6	=6	=6	=6	=6
1r	2r	4g]	1d	2a
.	.	8f#	.	.
.	.	8e	.	.
.	1d	2f#	.	2a
[1G	.	2g	1r	2b
.	2d	2g	.	[2b
=7	=7	=7	=7	=7
2G]	2.g	1d	1r	2b]
2G	.	.	.	2b
.	4f	.	.	.
1c	4e	1r	[1g	1cc
.	4d	.	.	.
.	2e	.	.	.
=8	=8	=8	=8	=8
2B	2d	1r	1g]	2dd
2.c	4c	.	.	2ee
.	4d	.	.	.
.	4e	1c	1g	1cc
4B	4f#	.	.	.
4A	[2g	.	.	.
4G	.	.	.	.
=9	=9	=9	=9	=9
1A	2g]	1c	1cc	0r
.	2f#	.	.	.
1E	4g	1e	2b	.
.	4f	.	.	.
.	4e	.	[2cc	.
.	4d	.	.	.
=10	=10	=10	=10	=10
0F	2.c	1A	4cc]	0r
.	.	.	4b	.
.	.	.	4a	.
.	8d	.	4g	.
.	8e	.	.	.
.	1f	1c	1a	.
=11	=11	=11	=11	=11
1C	2e	2c	1g	2r
.	2c	2e	.	2cc
1r	2d	2f	1r	2a
.	2e	2g	.	2g
=12	=12	=12	=12	=12
2r	2c	1e	2r	1cc
2c	2e	.	2g	.
2A	2f#	1r	2a	1r
2G	2g	.	2b	.
=13	=13	=13	=13	=13
1c	1e	2r	2g	2r
.	.	2.c	2.cc	2.ee
1r	1r	.	.	.
.	.	4c	4cc	4ee
.	.	2c	2cc	2ee
=14	=14	=14	=14	=14
1r	1r	2d	2a	2ff
.	.	2e	2g	2gg
2r	2r	1c	2cc	2.ee
[2c	[2e	.	[2g	.
.	.	.	.	4dd
=15	=15	=15	=15	=15
2c]	2e]	0r	2g]	1cc
2c	2e	.	2g	.
2A	2f#	.	2a	1r
2G	2g	.	2b	.
=16	=16	=16	=16	=16
1c	2e	2r	0g	2r
.	2c	2e	.	2cc
1r	2c	2e	.	2cc
.	2c	2e	.	2cc
=17	=17	=17	=17	=17
2r	2d	2f	2r	2a
2c	2e	2g	2g	2g
2c	2.c	2.e	2g	1cc
2c	.	.	2g	.
.	4d	4d	.	.
=18	=18	=18	=18	=18
2A	4e	4c	2a	0r
.	4f#	4A	.	.
2G	2.g	2.d	2b	.
1c	.	.	[1g	.
.	4f	4c	.	.
.	2e	[2c	.	.
=19	=19	=19	=19	=19
1G	1d	2c]	1g]	1r
.	.	4B	.	.
.	.	4A	.	.
2r	2r	2B	2r	2r
[2C	[2e	[2c	[2g	[2cc
=20	=20	=20	=20	=20
2C]	2e]	2c]	2g]	2cc]
2C	2e	2c	2g	2cc
1C	2e	2c	1g	1cc
.	[2e	[2g	.	.
=21	=21	=21	=21	=21
1.c	2e]	2g]	2r	1.ee
.	2c	2e	1g	.
.	2.c	1e	.	.
2A	.	.	2a	2ee
.	4d	.	.	.
=22	=22	=22	=22	=22
1A	2e	0c	1a	1ee
.	2e	.	.	.
1F	4A	.	1a	1ff
.	4B	.	.	.
.	4c	.	.	.
.	4d	.	.	.
=23	=23	=23	=23	=23
2C	2.e	2c	1g	1ee
1c	.	1e	.	.
.	4f	.	.	.
.	1g	.	2r	1r
2B	.	2d	[2g	.
=24	=24	=24	=24	=24
2c	0r	2e	2g]	0r
2F	.	2f	2a	.
[1c	.	[1e	2g	.
.	.	.	2c	.
=25	=25	=25	=25	=25
2c]	0r	2e]	1g	0r
2B	.	2d	.	.
2A	.	2c	2f	.
[2A	.	[2c	2e	.
=26	=26	=26	=26	=26
4A]	1r	4c]	4f	0r
4G	.	4B	4e	.
2E	.	2G	2.e	.
1F	2r	1A	.	.
.	.	.	8d	.
.	.	.	8c	.
.	[2a	.	2d	.
=27	=27	=27	=27	=27
1E	2a]	1B	2e	2r
.	2g#	.	4b	1ee
.	.	.	4b	.
1r	2a	2A	2cc	.
.	2d	[2a	2a	2ff
=28	=28	=28	=28	=28
0r	1.a	4a]	1.cc	2ee
.	.	4g	.	.
.	.	2f	.	2a
.	.	1e	.	1ee
.	2g	.	2b	.
=29	=29	=29	=29	=29
0r	2f	0r	2a	2dd
.	2.f	.	2.a	2cc
.	.	.	.	4dd
.	4e	.	4g	4cc
.	2c	.	2e	[2cc
=30	=30	=30	=30	=30
1r	1d	2r	1f	2cc]
.	.	1f	.	2b
2r	1c	.	2g	[1cc
[2c	.	2e	[2g	.
=31	=31	=31	=31	=31
4c]	2r	1e	4g]	1cc]
4c	.	.	4g	.
2c	2.c	.	2g	.
1A	.	1f#	1a	1r
.	4c	.	.	.
.	2c	.	.	.
=32	=32	=32	=32	=32
1G	1d	1g	1b	0r
2r	1e	2r	2r	.
[2c	.	[2e	[2g	.
=33	=33	=33	=33	=33
2c]	0r	2e]	2g]	2r
2c	.	2e	2g	1cc
1A	.	2f	1a	.
.	.	2e	.	2cc
=34	=34	=34	=34	=34
1G	2r	2.g	0b	1dd
.	1g	.	.	.
.	.	4f	.	.
1r	.	2.e	.	2ee
.	2g	.	.	[2gg
.	.	4d	.	.
=35	=35	=35	=35	=35
0r	1e	1c	2r	2gg]
.	.	.	1cc	2gg
.	1c	1r	.	1ee
.	.	.	2cc	.
=36	=36	=36	=36	=36
0r	2.g	0r	1b	2dd
.	.	.	.	2gg
.	4f	.	.	.
.	4e	.	2g	4gg
.	4d	.	.	4ff
.	4c	.	[2cc	4ee
.	4B	.	.	4dd
=37	=37	=37	=37	=37
0r	4A	0r	4cc]	4ee
.	4B	.	4b	4dd
.	2c	.	4a	4cc
.	.	.	4g	4b
.	2d	.	2f#	2a
.	2e	.	[2g	2g
=38	=38	=38	=38	=38
1r	1d	1r	2g]	1a
.	.	.	2f#	.
2r	2r	2r	[1g	1g
[2C	[2c	[2e	.	.
=39	=39	=39	=39	=39
4C]	4c]	4e]	1g]	0r
4C	4c	4e	.	.
2C	2c	2e	.	.
2F	2A	2d	1r	.
2E	2G	2c	.	.
=40	=40	=40	=40	=40
2F	2A	1.d	0r	0r
2.G	1B	.	.	.
4F	.	.	.	.
2E	[2c	2e	.	.
=41	=41	=41	=41	=41
2D	2c]	2f	1r	1r
2D	2B	2f	.	.
[1C	2c	1e	2r	2r
.	[2c	.	[2g	[2ee
=42	=42	=42	=42	=42
1C]	4c]	0r	4g]	4ee]
.	4c	.	4g	4ee
.	2c	.	2g	2ee
1r	2f	.	2a	2dd
.	2e	.	2g	2cc
=43	=43	=43	=43	=43
2r	2f	0r	2a	2dd
2.C	2.g	.	2cc	2.ee
.	.	.	2.g	.
4C	4f	.	.	4dd
2C	4e	.	.	4cc
.	4d	.	8f	4b
.	.	.	8e	.
=44	=44	=44	=44	=44
2F	4c	0r	2f	2a
.	4d	.	.	.
2E	2e	.	2g	1cc
2F	2d	.	2a	.
2G	2d	.	4g	2b
.	.	.	4f	.
=45	=45	=45	=45	=45
2A	0c	1r	1e	0cc
2A	.	.	.	.
1F	.	[1f	1a	.
=46	=46	=46	=46	=46
0C	1r	2f]	[0g	0cc
.	.	4e	.	.
.	.	4d	.	.
.	[1c	1e	.	.
=47	=47	=47	=47	=47
0G	2c]	1d	0g]	0dd
.	4B	.	.	.
.	4A	.	.	.
.	2B	[1g	.	.
.	2B	.	.	.
=48	=48	=48	=48	=48
0D	0A	2g]	1a	0dd
.	.	4f#	.	.
.	.	4e	.	.
.	.	1f#	1d	.
=49	=49	=49	=49	=49
0G	2G	1g	0d	1b
.	2.g	.	.	.
.	.	1r	.	2r
.	4g	.	.	.
.	2g	.	.	[2g
=50	=50	=50	=50	=50
0r	1e	0r	2r	4g]
.	.	.	.	4g
.	.	.	2.g	2g
.	1d	.	.	1a
.	.	.	4f	.
.	.	.	2f	.
=51	=51	=51	=51	=51
1c	2r	1r	2.e	0cc
.	2.g	.	.	.
.	.	.	4d	.
2c	.	2r	4e	.
.	4f	.	4f	.
2c	[2e	2c	[2g	.
=52	=52	=52	=52	=52
1A	4e]	2c	2g]	0r
.	4d	.	.	.
.	1c	2c	2f#	.
1G	.	1d	[1g	.
.	2B	.	.	.
=53	=53	=53	=53	=53
2E	1c	2e	2g]	0r
2F	.	1c	2a	.
1D	1d	.	1f	.
.	.	2B	.	.
=54	=54	=54	=54	=54
0C	2G	2.c	2.e	2r
.	2c	.	.	2cc
.	.	4d	4f	.
.	2c	4e	1g	2cc
.	.	4f	.	.
.	2c	[2g	.	2cc
=55	=55	=55	=55	=55
0r	1d	2g]	1r	1a
.	.	2f#	.	.
.	[1e	2g	2r	1g
.	.	2c	2g	.
=56	=56	=56	=56	=56
0r	0e]	2c	2g	2r
.	.	2c	2g	2cc
.	.	1A	1a	2cc
.	.	.	.	2cc
=57	=57	=57	=57	=57
1r	2r	1G	1b	1dd
.	2g	.	.	.
1c	2g	1r	2.cc	2ee
.	2g	.	.	[2gg
.	.	.	8b	.
.	.	.	8a	.
=58	=58	=58	=58	=58
2c	2.e	0r	1g	4gg]
.	.	.	.	4ff
2c	.	.	.	2.ee
.	4d	.	.	.
1A	1c	.	2a	.
.	.	.	.	4dd
.	.	.	2e	[2cc
=59	=59	=59	=59	=59
0G	0d	2r	1g	2cc]
.	.	2g	.	4b
.	.	.	.	4a
.	.	2g	2d	1b
.	.	2g	2g	.
=60	=60	=60	=60	=60
2.C	[0c	2.e	2g	[0cc
.	.	.	2g	.
4D	.	4f	.	.
1E	.	4g	4e	.
.	.	4f	4f	.
.	.	4e	4g	.
.	.	4d	8f	.
.	.	.	8g	.
=61	=61	=61	=61	=61
1.F	1c_	4c	2a	1cc_
.	.	4B	.	.
.	.	4A	1a	.
.	.	4G	.	.
.	1c_	1F	.	1cc_
4E	.	.	4g	.
4D	.	.	4f	.
=62	=62	=62	=62	=62
0C	0c]	0G	0e	0cc]
=63	=63	=63	=63	=63
0c	0e	1r	0g	0r
.	.	[1c	.	.
=64	=64	=64	=64	=64
1A	1f#	1c]	1a	0r
2G	2.g	1d	1b	.
2G	.	.	.	.
.	4f	.	.	.
=65	=65	=65	=65	=65
2.c	4e	2e	2g	1r
.	4d	.	.	.
.	2c	2e	2.cc	.
4B	.	.	.	.
4A	1e	2.c	.	[1cc
4G	.	.	4b	.
[2A	.	.	4a	.
.	.	4B	4g	.
=66	=66	=66	=66	=66
2A]	1.c	2A	2f	1cc]
2E	.	2G	1e	.
1F	.	2A	.	1a
.	2A	2A	2d	.
=67	=67	=67	=67	=67
[0C	2.c	1r	1e	2g
.	.	.	.	2g
.	4d	.	.	.
.	4e	[1c	2r	2.gg
.	4d	.	.	.
.	4e	.	4c	.
.	4f	.	4d	4ff
=68	=68	=68	=68	=68
1C]	4g	1c]	4e	4ee
.	4f	.	4f	4dd
.	4e	.	2.g	2.ee
.	4d	.	.	.
1r	1c	1A	.	.
.	.	.	8f#	4dd
.	.	.	8e	.
.	.	.	2f#	[2cc
=69	=69	=69	=69	=69
1r	1d	2G	1g	2cc]
.	.	2G	.	2b
1C	2c	2.g	2e	1cc
.	2g	.	2e	.
.	.	4f	.	.
=70	=70	=70	=70	=70
2.C	2.g	4e	1c	2g
.	.	4d	.	.
.	.	1e	.	2gg
4D	4f	.	.	.
2E	2e	.	1G	2.gg
2G	2d	2B	.	.
.	.	.	.	4ff
=71	=71	=71	=71	=71
1C	1e	1c	1g	2ee
.	.	.	.	2cc
1G	1d	1B	1g	1dd
=72	=72	=72	=72	=72
2r	2r	2r	2r	2dd
1G	1d	1B	1g	1dd
2G	2B	[2d	2g	2dd
=73	=73	=73	=73	=73
1F	2.A	2d]	1a	1ff
.	.	2.c	.	.
.	4B	.	.	.
1C	2.c	.	2g	1ee
.	.	4B	.	.
.	.	4A	[2a	.
.	4B	4G	.	.
=74	=74	=74	=74	=74
0D	2A	2F#	2a]	0dd
.	2B	2G	1g	.
.	1d	1A	.	.
.	.	.	2f#	.
=75	=75	=75	=75	=75
1G	1d	1G	0g	1b
1r	1r	1r	.	1r
=76	=76	=76	=76	=76
0c	0e	1r	0r	0g
.	.	[1c	.	.
=77	=77	=77	=77	=77
1A	1f#	1c]	0r	1a
2G	[1g	1d	.	4b
.	.	.	.	4cc
2G	.	.	.	4dd
.	.	.	.	4b
=78	=78	=78	=78	=78
2.c	1g]	[0e	1r	4cc
.	.	.	.	4b
.	.	.	.	4cc
4B	.	.	.	4dd
4A	[1c	.	[1cc	1ee
4G	.	.	.	.
[2A	.	.	.	.
=79	=79	=79	=79	=79
2A]	1c]	1e]	1cc]	0r
2E	.	.	.	.
1F	1d	1A	1a	.
=80	=80	=80	=80	=80
1E	1e	2c	2g	2r
.	.	2B	2g	2ee
1r	1c	2A	2.cc	1ee
.	.	2A	.	.
.	.	.	4b	.
=81	=81	=81	=81	=81
0r	2.f	2r	4a	2cc
.	.	.	4g	.
.	.	4d	1a	1ff
.	4e	4e	.	.
.	2d	4f	.	.
.	.	4g	.	.
.	2c	[2a	2e	[2ee
=82	=82	=82	=82	=82
0r	1d	2a]	1f	4ee]
.	.	.	.	8dd
.	.	.	.	8cc
.	.	4g	.	2dd
.	.	4f	.	.
.	1c	1g	1e	1ee
=83	=83	=83	=83	=83
1.G	1.B	1g	2r	1.dd
.	.	.	1g	.
.	.	2r	.	.
2G	2B	[2d	2g	2dd
=84	=84	=84	=84	=84
1G	1B	2d]	1g	4dd
.	.	.	.	4cc
.	.	2d	.	4b
.	.	.	.	4a
[1G	2r	4d	2r	1b
.	.	4c	.	.
.	[2d	4B	[2g	.
.	.	4A	.	.
=85	=85	=85	=85	=85
2G]	2d]	1B	2g]	0r
2G	2d	.	2g	.
2A	2c	1r	2f	.
2F	2A	.	2d	.
=86	=86	=86	=86	=86
2.G	2.B	2r	2e	2r
.	.	1g	1d	1gg
4F	4A	.	.	.
2G	2B	.	.	.
2E	2G	2g	[2c	2gg
=87	=87	=87	=87	=87
1D	1d	2a	4c]	2ff
.	.	.	4B	.
.	.	2f	4B	2dd
.	.	.	4A	.
1C	2.G	2.g	1c	1ee
.	4A	4f	.	.
=88	=88	=88	=88	=88
0r	2B	2g	2G	2dd
.	2c	2e	2.g	1cc
.	1G	1d	.	.
.	.	.	4f	.
.	.	.	2g	2b
=89	=89	=89	=89	=89
1r	2r	0c	1e	[0cc
.	2g	.	.	.
2r	1g	.	2r	.
2c	.	.	2e	.
=90	=90	=90	=90	=90
1c	1.e	2r	1g	1cc]
.	.	2c	.	.
1A	.	2c	1a	1r
.	2f	2c	.	.
=91	=91	=91	=91	=91
2B	1g	2d	0r	0r
1c	.	1e	.	.
.	2e	.	.	.
2A	2f	2c	.	.
=92	=92	=92	=92	=92
2B	2.g	2d	0r	0r
2.c	.	4e	.	.
.	4f	4f	.	.
.	4e	2g	.	.
4B	4d	.	.	.
[2A	[2c	4f	.	.
.	.	4e	.	.
=93	=93	=93	=93	=93
4A]	4c]	4f	1r	0r
4G	4B	4e	.	.
2E	2G	1e	.	.
1F	1A	.	2r	.
.	.	2d	[2a	.
=94	=94	=94	=94	=94
1E	2B	1e	2a]	2r
.	2B	.	2g#	1ee
1A	1c#	2r	[1a	.
.	.	2A	.	2ee
=95	=95	=95	=95	=95
1D	2.d	2A	1a]	1ff#
.	.	1d	.	.
.	4c	.	.	.
1G	4B	.	1b	1gg
.	4G	.	.	.
.	2d	[2G	.	.
=96	=96	=96	=96	=96
0C	2c	2G]	2.cc	0ee
.	1e	4c	.	.
.	.	4d	8b	.
.	.	.	8a	.
.	.	4e	2.g	.
.	.	4f	.	.
.	4d	2g	.	.
.	4c	.	4a	.
=97	=97	=97	=97	=97
1G	4B	2G	4b	0dd
.	4A	.	4cc	.
.	2G	1g	2b	.
1D	1A	.	2.a	.
.	.	2f#	.	.
.	.	.	4b	.
=98	=98	=98	=98	=98
0C	2r	1g	2cc	2r
.	2.c	.	2.g	2.ee
.	.	1r	.	.
.	4c	.	4g	4ee
.	2c	.	2g	2ee
=99	=99	=99	=99	=99
0r	2f	1r	2a	2dd
.	2e	.	2g	2cc
.	2f	2r	2a	2dd
.	[2g	[2c	[2cc	[2ee
=100	=100	=100	=100	=100
0r	4g]	4c]	4cc]	4ee]
.	4f	4c	8b	4dd
.	.	.	8a	.
.	2e	2c	2g	1cc
.	1d	[1f	2a	.
.	.	.	4f	2b
.	.	.	4g	.
=101	=101	=101	=101	=101
0r	1c	2f]	4a	4cc
.	.	.	4b	4dd
.	.	2e	1cc	4ee
.	.	.	.	4cc
.	2r	2f	.	1dd
.	2G	2g	2b	.
=102	=102	=102	=102	=102
1C	1.c	2e	1cc	0r
.	.	2e	.	.
[1G	.	[1d	1r	.
.	4B	.	.	.
.	4A	.	.	.
=103	=103	=103	=103	=103
2G]	2B	2d]	1r	0r
2E	2c	2G	.	.
2F	2d	2A	2r	.
2G	2d	2B	[2g	.
=104	=104	=104	=104	=104
1C	2e	1c	2g]	1ee
.	2c	.	1cc	.
1r	1g	1r	.	1dd
.	.	.	[2b	.
=105	=105	=105	=105	=105
1r	2g	1r	2b]	2dd
.	2e	.	2g	2cc
2r	2f	2r	2a	2dd
2G	2g	2g	2b	2dd
=106	=106	=106	=106	=106
1c	1e	1g	1.cc	2.ee
.	.	.	.	4dd
2c	1r	2g	.	4ee
.	.	.	.	4ff
2B	.	2g	2dd	[2gg
=107	=107	=107	=107	=107
2c	2r	2a	2cc	2gg]
2d	1d	2a	2a	2ff#
1G	.	1g	1b	1gg
.	[2g	.	.	.
=108	=108	=108	=108	=108
1c	4g]	2r	1g	1ee
.	4f	.	.	.
.	4e	2c	.	.
.	4d	.	.	.
1A	2c	1e	1a	1ee
.	2c	.	.	.
=109	=109	=109	=109	=109
0F	1c	2.A	0a	0ff
.	.	4B	.	.
.	2.A	2c	.	.
.	.	2d	.	.
.	4B	.	.	.
=110	=110	=110	=110	=110
2C	2c	1e	2g	1ee
2c	2e	.	2g	.
2c	2e	1r	2g	1r
2c	2e	.	2g	.
=111	=111	=111	=111	=111
2A	2f#	1r	2a	1r
2G	2g	.	2b	.
1c	2e	2r	[1g	2r
.	2c	2e	.	2cc
=112	=112	=112	=112	=112
0r	2c	2e	1g]	2cc
.	2c	2e	.	2cc
.	2d	2f	1r	2a
.	2e	2g	.	2g
=113	=113	=113	=113	=113
2r	2c	2e	1g	0cc
2C	2e	2c	.	.
2C	2e	2c	2.g	.
2C	2e	2c	.	.
.	.	.	4e	.
=114	=114	=114	=114	=114
2F	2d	2A	2f	2r
2E	1c	2G	2g	2cc
1F	.	2A	1f	2cc
.	2A	[2c	.	2cc
=115	=115	=115	=115	=115
1D	1F	2c]	1r	1ff
.	.	2B	.	.
[1C	2G	1c	2r	2.ee
.	4c	.	2g	.
.	4d	.	.	4ff
=116	=116	=116	=116	=116
1C]	4e	2.c	2g	2.gg
.	4f	.	.	.
.	2e	.	2g	.
.	.	4d	.	4ff
1r	2c	4e	2cc	2ee
.	.	4f	.	.
.	2G	2g	2b	2dd
=117	=117	=117	=117	=117
0r	1g	1c	1cc	4ee
.	.	.	.	4ff
.	.	.	.	1gg
.	2r	1d	1a	.
.	2d	.	.	2ff#
=118	=118	=118	=118	=118
2r	2d	4G	0b	2gg
.	.	4A	.	.
2G	2d	4B	.	2dd
.	.	4c	.	.
2G	2.g	1d	.	2dd
2G	.	.	.	2b
.	4f	.	.	.
=119	=119	=119	=119	=119
2c	2e	0r	2r	2cc
2B	2d	.	2g	2dd
1c	2e	.	2g	2cc
.	[2g	.	2g	[2ee
=120	=120	=120	=120	=120
1A	2g]	1r	1.cc	2ee]
.	2f	.	.	4dd
.	.	.	.	4cc
1G	2.g	2r	.	2ee
.	.	2G	4b	2dd
.	4f	.	4a	.
=121	=121	=121	=121	=121
0r	2e	2G	1b	2.gg
.	2d	2G	.	.
.	.	.	.	4ff
.	2c	2c	2cc	2ee
.	2d	2B	2g	2dd
=122	=122	=122	=122	=122
0r	1e	1c	2a	2cc
.	.	.	1g	1ee
.	1c	1A	.	.
.	.	.	2f	4dd
.	.	.	.	4cc
=123	=123	=123	=123	=123
0r	2d	1G	0g	2b
.	2e	.	.	1cc
.	1d	1G	.	.
.	.	.	.	2b
=124	=124	=124	=124	=124
1.C	2r	[0c	1.g	[0cc
.	1e	.	.	.
2C	2g	.	2e	.
=125	=125	=125	=125	=125
2F	2a	0c]	2f	0cc]
2E	2g	.	2g	.
1F	1f	.	1a	.
=126	=126	=126	=126	=126
[0C	[0e	[0c	[0g	[0cc
=127	=127	=127	=127	=127
0C]	0e]	0c]	0g]	0cc]
==	==	==	==	==
*-	*-	*-	*-	*-
!!!CDT: 1525/^1526/-1594/2/2
!!!OCY: Italia
!!!AGN: Mass (Parody)
!!!AST: renaissance, vocal
!!!ASW: Motet (Maffoni)
!!!PWK: Masses, Book 6
!!!RNB: Cadence finals: G,A
!!!YOR: Le Opere Complete, v. 21, p. 105
!!!YOO: Rome, Italy: Fratelli Scalera
!!!END: 1992//
!!!EED: John Miller
!!!YEC: Copyright 2000, John Miller
!!!YEN: United States of America
!!!YEM: Rights to all derivative electronic formats reserved.
!!!YEM: Refer to licensing agreement for further details.
!!!YEM: This file must be accompanied by the licensing agreement.
!!!YEM: A copy of the licensing agreement may be found at http://www.music-cog.ohio-state.edu/HumdrumDatabases/Palestrina/license.txt
!!!EMD: converted to Humdrum by Bret Aarden
